X: 391
T:Over the Border
N: page 146
N: hexatonic
R: Jig
C:Scottish
M:6/8
L:1/8
K:G
%
"G"G3 G3 | GBA GED | "C"G>EE E2 D | "G"edB "D7"A2 B |
"G"G3 G3 | GBA GED | "C"c>de "G"d<gG | "G"GAB A2 G :|
|: "G"GBd dBG | "C"edB "G"BAG | GBd "Em"efg | "Am"GAB "D7"A2 G |
"G"GBd dBG | "C"edB "G"BAG | "C"EGE "D"DEF | "G"GAB A2 G :|
